svg/file/link_2_fill.svg

<?xml version="1.0" encoding="UTF-8"?>
<svg width="24px" height="24px" viewBox="0 0 24 24" version="1.1" xmlns="http://www.w3.org/2000/svg" xmlns:xlink="http://www.w3.org/1999/xlink">
    <title>link_2_fill</title>
    <g id="页面-1" stroke="none" stroke-width="1" fill="none" fill-rule="evenodd">
        <g id="File" transform="translate(-672.000000, -48.000000)" fill-rule="nonzero">
            <g id="link_2_fill" transform="translate(672.000000, 48.000000)">
                 <path d="M24,0 L24,24 L0,24 L0,0 L24,0 Z M12.5934901,23.257841 L12.5819402,23.2595131 L12.5108777,23.2950439 L12.4918791,23.2987469 L12.4918791,23.2987469 L12.4767152,23.2950439 L12.4056548,23.2595131 C12.3958229,23.2563662 12.3870493,23.2590235 12.3821421,23.2649074 L12.3780323,23.275831 L12.360941,23.7031097 L12.3658947,23.7234994 L12.3769048,23.7357139 L12.4804777,23.8096931 L12.4953491,23.8136134 L12.4953491,23.8136134 L12.5071152,23.8096931 L12.6106902,23.7357139 L12.6232938,23.7196733 L12.6232938,23.7196733 L12.6266527,23.7031097 L12.609561,23.275831 C12.6075724,23.2657013 12.6010112,23.2592993 12.5934901,23.257841 L12.5934901,23.257841 Z M12.8583906,23.1452862 L12.8445485,23.1473072 L12.6598443,23.2396597 L12.6498822,23.2499052 L12.6498822,23.2499052 L12.6471943,23.2611114 L12.6650943,23.6906389 L12.6699349,23.7034178 L12.6699349,23.7034178 L12.678386,23.7104931 L12.8793402,23.8032389 C12.8914285,23.8068999 12.9022333,23.8029875 12.9078286,23.7952264 L12.9118235,23.7811639 L12.8776777,23.1665331 C12.8752882,23.1545897 12.8674102,23.1470016 12.8583906,23.1452862 L12.8583906,23.1452862 Z M12.1430473,23.1473072 C12.1332178,23.1423925 12.1221763,23.1452606 12.1156365,23.1525954 L12.1099173,23.1665331 L12.0757714,23.7811639 C12.0751323,23.7926639 12.0828099,23.8018602 12.0926481,23.8045676 L12.108256,23.8032389 L12.3092106,23.7104931 L12.3186497,23.7024347 L12.3186497,23.7024347 L12.3225043,23.6906389 L12.340401,23.2611114 L12.337245,23.2485176 L12.337245,23.2485176 L12.3277531,23.2396597 L12.1430473,23.1473072 Z" id="MingCute" fill-rule="nonzero"></path>
                <path d="M15.889,9.52505 C16.4381875,8.97588125 17.307209,8.9415582 17.8963757,9.42208086 L18.0103,9.52505 L20.1317,11.6464 C22.4748,13.9895 22.4748,17.7885 20.1317,20.1317 C17.8485821,22.4147205 14.1833634,22.4732595 11.829461,20.307317 L11.6464,20.1317 L9.52505,18.0103 C8.93927,17.4245 8.93927,16.4748 9.52505,15.889 C10.0741906,15.3398125 10.9432971,15.3054883 11.5324746,15.7860273 L11.6464,15.889 L13.7677,18.0103 C14.9393,19.1819 16.8388,19.1819 18.0103,18.0103 C19.135036,16.88566 19.1800254,15.0900952 18.1452683,13.9116927 L18.0103,13.7677 L15.889,11.6464 C15.3032,11.0606 15.3032,10.1108 15.889,9.52505 Z M8.81781,8.81794 C9.36698813,8.26876187 10.236009,8.23443824 10.8251757,8.7149691 L10.9391,8.81794 L15.1818,13.0606 C15.7676,13.6464 15.7676,14.5961 15.1818,15.1819 C14.6326125,15.7310875 13.7635031,15.7654117 13.1743254,15.2848727 L13.0604,15.1819 L8.81781,10.9393 C8.23202,10.3535 8.23202,9.40373 8.81781,8.81794 Z M3.8682,3.8682 C6.15125949,1.58513077 9.81643869,1.52659053 12.1704316,3.69257929 L12.3535,3.8682 L14.4748,5.98952 C15.0606,6.57531 15.0606,7.52505 14.4748,8.1108375 C13.9256125,8.66001797 13.056591,8.69434175 12.4674243,8.21380884 L12.3535,8.1108375 L10.2322,5.98952 C9.06059,4.81795 7.16109,4.81795 5.98952,5.98952 C4.8648128,7.1142272 4.81982451,8.90979469 5.85455514,10.0882061 L5.98952,10.2322 L8.1108375,12.3535 C8.69663,12.9393 8.69663,13.889 8.1108375,14.4748 C7.56166172,15.0239875 6.69260581,15.0583117 6.10344295,14.5777727 L5.98952,14.4748 L3.8682,12.3535 C1.52505,10.0103 1.52505,6.21134 3.8682,3.8682 Z" id="形状" fill="#09244B"></path>
            </g>
        </g>
    </g>
</svg>

<svg xmlns="http://www.w3.org/2000/svg" width="24" height="24"><g fill="none" fill-rule="nonzero"><path d="M24 0v24H0V0h24ZM12.593 23.258l-.011.002-.071.035-.02.004-.014-.004-.071-.035c-.01-.004-.019-.001-.024.005l-.004.01-.017.428.005.02.01.013.104.074.015.004.012-.004.104-.074.012-.016.004-.017-.017-.427c-.002-.01-.009-.017-.017-.018Zm.265-.113-.013.002-.185.093-.01.01-.003.011.018.43.005.012.008.007.201.093c.012.004.023 0 .029-.008l.004-.014-.034-.614c-.003-.012-.01-.02-.02-.022Zm-.715.002a.023.023 0 0 0-.027.006l-.006.014-.034.614c0 .012.007.02.017.024l.015-.002.201-.093.01-.008.004-.011.017-.43-.003-.012-.01-.01-.184-.092Z"/><path fill="#09244B" d="M15.889 9.525a1.5 1.5 0 0 1 2.007-.103l.114.103 2.122 2.121a6 6 0 0 1-8.303 8.661l-.183-.175-2.121-2.122a1.5 1.5 0 0 1 2.007-2.224l.114.103 2.122 2.121a3 3 0 0 0 4.377-4.098l-.135-.144-2.121-2.122a1.5 1.5 0 0 1 0-2.121Zm-7.071-.707a1.5 1.5 0 0 1 2.007-.103l.114.103 4.243 4.243a1.5 1.5 0 0 1-2.008 2.224l-.114-.103-4.242-4.243a1.5 1.5 0 0 1 0-2.121Zm-4.95-4.95a6 6 0 0 1 8.302-.175l.184.175 2.12 2.122a1.5 1.5 0 0 1-2.007 2.224l-.114-.103-2.12-2.121a3 3 0 0 0-4.378 4.098l.135.144 2.12 2.122a1.5 1.5 0 0 1-2.007 2.224l-.113-.103-2.122-2.121a6 6 0 0 1 0-8.486Z"/></g></svg>
